.github/assets/README-website.svg

<svg width="224" height="180" viewBox="0 0 224 180" fill="none" xmlns="http://www.w3.org/2000/svg">
<rect y="34" width="224" height="112" rx="16" fill="white" fill-opacity="0.9"/>
<path d="M47.6 100L41.82 72H46.04L49.34 89.42C49.4467 89.9667 49.54 90.46 49.62 90.9C49.7 91.3267 49.76 91.7467 49.8 92.16C49.88 91.7467 49.9733 91.32 50.08 90.88C50.2 90.4267 50.3333 89.9467 50.48 89.44L55.1 72H58.42L63.1 89.4C63.2333 89.9067 63.3467 90.3667 63.44 90.78C63.5333 91.18 63.6067 91.5733 63.66 91.96C63.7267 91.5733 63.7933 91.18 63.86 90.78C63.94 90.3667 64.0333 89.9133 64.14 89.42L67.72 72H71.88L65.8 100H62.4L57.32 81.66C57.1867 81.18 57.0667 80.7467 56.96 80.36C56.8667 79.96 56.78 79.56 56.7 79.16C56.6333 79.56 56.5533 79.9533 56.46 80.34C56.3667 80.7133 56.2533 81.1467 56.12 81.64L51.08 100H47.6ZM83.9372 100.48C82.0305 100.48 80.3839 100.027 78.9972 99.12C77.6239 98.2133 76.5639 96.9533 75.8172 95.34C75.0839 93.7267 74.7172 91.8667 74.7172 89.76C74.7172 87.52 75.0972 85.6067 75.8572 84.02C76.6305 82.42 77.7039 81.2 79.0772 80.36C80.4639 79.5067 82.0839 79.08 83.9372 79.08C85.5105 79.08 86.9439 79.4267 88.2372 80.12C89.5439 80.8 90.5839 81.86 91.3572 83.3C92.1439 84.7267 92.5372 86.56 92.5372 88.8C92.5372 89.12 92.5239 89.5067 92.4972 89.96C92.4839 90.4 92.4505 90.8533 92.3972 91.32H78.7372C78.8439 92.4533 79.1172 93.4533 79.5572 94.32C80.0105 95.1733 80.6105 95.84 81.3572 96.32C82.1039 96.8 82.9839 97.04 83.9972 97.04C84.8905 97.04 85.7039 96.8867 86.4372 96.58C87.1705 96.26 87.8572 95.7667 88.4972 95.1L90.8172 97.6C90.0172 98.44 89.0372 99.1333 87.8772 99.68C86.7172 100.213 85.4039 100.48 83.9372 100.48ZM78.7172 88H88.5772C88.5505 86.92 88.3505 85.9733 87.9772 85.16C87.6172 84.3333 87.0905 83.6867 86.3972 83.22C85.7172 82.7533 84.8839 82.52 83.8972 82.52C82.5239 82.52 81.3439 82.96 80.3572 83.84C79.3705 84.72 78.8239 86.1067 78.7172 88ZM106.574 100.48C105.587 100.48 104.707 100.307 103.934 99.96C103.161 99.6 102.401 99.04 101.654 98.28V100H97.6741V72.96L101.654 71.12V81.26C102.254 80.5667 102.981 80.0333 103.834 79.66C104.687 79.2733 105.594 79.08 106.554 79.08C108.274 79.08 109.767 79.52 111.034 80.4C112.301 81.2667 113.281 82.5067 113.974 84.12C114.681 85.72 115.034 87.6 115.034 89.76C115.034 93.1467 114.287 95.78 112.794 97.66C111.314 99.54 109.241 100.48 106.574 100.48ZM106.054 96.72C107.641 96.72 108.854 96.12 109.694 94.92C110.547 93.72 110.974 92 110.974 89.76C110.974 87.4933 110.554 85.7667 109.714 84.58C108.874 83.3933 107.654 82.8 106.054 82.8C105.187 82.8 104.347 83.0267 103.534 83.48C102.721 83.9333 102.094 84.5133 101.654 85.22V94.28C102.134 95.04 102.754 95.64 103.514 96.08C104.274 96.5067 105.121 96.72 106.054 96.72ZM126.219 100.48C124.725 100.48 123.292 100.16 121.919 99.52C120.559 98.88 119.452 98.02 118.599 96.94L121.359 94.6C122.065 95.36 122.859 95.9533 123.739 96.38C124.619 96.7933 125.479 97 126.319 97C127.465 97 128.352 96.7933 128.979 96.38C129.605 95.9533 129.919 95.3667 129.919 94.62C129.919 94.14 129.772 93.7067 129.479 93.32C129.199 92.92 128.719 92.54 128.039 92.18C127.359 91.8067 126.439 91.4067 125.279 90.98C123.012 90.14 121.392 89.2333 120.419 88.26C119.445 87.2733 118.959 86.04 118.959 84.56C118.959 82.9333 119.612 81.6133 120.919 80.6C122.225 79.5867 123.919 79.08 125.999 79.08C127.439 79.08 128.759 79.3533 129.959 79.9C131.159 80.4333 132.192 81.2133 133.059 82.24L130.359 84.46C129.145 83.1933 127.679 82.56 125.959 82.56C124.985 82.56 124.212 82.7467 123.639 83.12C123.065 83.48 122.779 83.98 122.779 84.62C122.779 85.2467 123.105 85.7933 123.759 86.26C124.412 86.7267 125.605 87.2733 127.339 87.9C128.832 88.42 130.045 88.9933 130.979 89.62C131.925 90.2467 132.612 90.9667 133.039 91.78C133.479 92.58 133.699 93.5067 133.699 94.56C133.699 96.4 133.032 97.8467 131.699 98.9C130.379 99.9533 128.552 100.48 126.219 100.48ZM139.081 100V79.56H143.061V100H139.081ZM141.061 76.22C140.395 76.22 139.821 75.9867 139.341 75.52C138.875 75.04 138.641 74.4667 138.641 73.8C138.641 73.12 138.875 72.54 139.341 72.06C139.808 71.58 140.381 71.34 141.061 71.34C141.755 71.34 142.335 71.58 142.801 72.06C143.268 72.54 143.501 73.12 143.501 73.8C143.501 74.48 143.268 75.0533 142.801 75.52C142.335 75.9867 141.755 76.22 141.061 76.22ZM155.348 100.48C153.881 100.48 152.761 100.053 151.988 99.2C151.228 98.3333 150.848 97.08 150.848 95.44V83.04H147.648V79.56H150.848V73.04L154.828 71.12V79.56H159.728V83.04H154.828V94.38C154.828 95.2333 154.981 95.86 155.288 96.26C155.608 96.66 156.101 96.86 156.768 96.86C157.728 96.86 158.768 96.52 159.888 95.84L159.428 99.56C158.815 99.88 158.175 100.113 157.508 100.26C156.841 100.407 156.121 100.48 155.348 100.48ZM172.648 100.48C170.741 100.48 169.095 100.027 167.708 99.12C166.335 98.2133 165.275 96.9533 164.528 95.34C163.795 93.7267 163.428 91.8667 163.428 89.76C163.428 87.52 163.808 85.6067 164.568 84.02C165.341 82.42 166.415 81.2 167.788 80.36C169.175 79.5067 170.795 79.08 172.648 79.08C174.221 79.08 175.655 79.4267 176.948 80.12C178.255 80.8 179.295 81.86 180.068 83.3C180.855 84.7267 181.248 86.56 181.248 88.8C181.248 89.12 181.235 89.5067 181.208 89.96C181.195 90.4 181.161 90.8533 181.108 91.32H167.448C167.555 92.4533 167.828 93.4533 168.268 94.32C168.721 95.1733 169.321 95.84 170.068 96.32C170.815 96.8 171.695 97.04 172.708 97.04C173.601 97.04 174.415 96.8867 175.148 96.58C175.881 96.26 176.568 95.7667 177.208 95.1L179.528 97.6C178.728 98.44 177.748 99.1333 176.588 99.68C175.428 100.213 174.115 100.48 172.648 100.48ZM167.428 88H177.288C177.261 86.92 177.061 85.9733 176.688 85.16C176.328 84.3333 175.801 83.6867 175.108 83.22C174.428 82.7533 173.595 82.52 172.608 82.52C171.235 82.52 170.055 82.96 169.068 83.84C168.081 84.72 167.535 86.1067 167.428 88Z" fill="#109FBC" fill-opacity="0.96"/>
</svg>

<svg xmlns="http://www.w3.org/2000/svg" width="224" height="180" fill="none"><rect width="224" height="112" y="34" fill="#fff" fill-opacity=".9" rx="16"/><path fill="#109FBC" fill-opacity=".96" d="m47.6 100-5.78-28h4.22l3.3 17.42q.16.82.28 1.48.12.64.18 1.26.12-.62.28-1.28.18-.68.4-1.44L55.1 72h3.32l4.68 17.4q.2.76.34 1.38.14.6.22 1.18.1-.58.2-1.18.12-.62.28-1.36L67.72 72h4.16l-6.08 28h-3.4l-5.08-18.34-.36-1.3q-.14-.6-.26-1.2-.1.6-.24 1.18-.14.56-.34 1.3L51.08 100zm36.337.48q-2.86 0-4.94-1.36-2.06-1.36-3.18-3.78-1.1-2.42-1.1-5.58 0-3.36 1.14-5.74 1.16-2.4 3.22-3.66 2.08-1.28 4.86-1.28 2.36 0 4.3 1.04 1.96 1.02 3.12 3.18 1.18 2.14 1.18 5.5 0 .48-.04 1.16-.02.66-.1 1.36h-13.66q.16 1.7.82 3 .68 1.28 1.8 2t2.64.72q1.34 0 2.44-.46 1.1-.48 2.06-1.48l2.32 2.5q-1.2 1.26-2.94 2.08-1.74.8-3.94.8M78.717 88h9.86q-.04-1.62-.6-2.84-.54-1.24-1.58-1.94-1.02-.7-2.5-.7-2.06 0-3.54 1.32T78.717 88m27.857 12.48q-1.48 0-2.64-.52-1.16-.54-2.28-1.68V100h-3.98V72.96l3.98-1.84v10.14a6.06 6.06 0 0 1 2.18-1.6 6.5 6.5 0 0 1 2.72-.58q2.58 0 4.48 1.32 1.9 1.3 2.94 3.72 1.06 2.4 1.06 5.64 0 5.08-2.24 7.9-2.22 2.82-6.22 2.82m-.52-3.76q2.38 0 3.64-1.8 1.28-1.8 1.28-5.16 0-3.4-1.26-5.18t-3.66-1.78q-1.3 0-2.52.68t-1.88 1.74v9.06q.72 1.14 1.86 1.8 1.14.64 2.54.64m20.165 3.76q-2.24 0-4.3-.96-2.04-.96-3.32-2.58l2.76-2.34q1.06 1.14 2.38 1.78 1.32.62 2.58.62 1.72 0 2.66-.62.94-.64.94-1.76a2.1 2.1 0 0 0-.44-1.3q-.42-.6-1.44-1.14-1.02-.56-2.76-1.2-3.4-1.26-4.86-2.72-1.46-1.48-1.46-3.7 0-2.44 1.96-3.96t5.08-1.52q2.16 0 3.96.82a8.6 8.6 0 0 1 3.1 2.34l-2.7 2.22q-1.82-1.9-4.4-1.9-1.46 0-2.32.56-.86.54-.86 1.5 0 .94.98 1.64t3.58 1.64q2.24.78 3.64 1.72 1.42.94 2.06 2.16.66 1.2.66 2.78 0 2.76-2 4.34-1.98 1.58-5.48 1.58m12.862-.48V79.56h3.98V100zm1.98-23.78q-1 0-1.72-.7a2.38 2.38 0 0 1-.7-1.72q0-1.02.7-1.74t1.72-.72q1.041 0 1.74.72t.7 1.74-.7 1.72q-.699.7-1.74.7m14.287 24.26q-2.2 0-3.36-1.28-1.14-1.3-1.14-3.76v-12.4h-3.2v-3.48h3.2v-6.52l3.98-1.92v8.44h4.9v3.48h-4.9v11.34q0 1.28.46 1.88.48.6 1.48.6 1.44 0 3.12-1.02l-.46 3.72a7.7 7.7 0 0 1-1.92.7 10 10 0 0 1-2.16.22m17.3 0q-2.86 0-4.94-1.36-2.06-1.36-3.18-3.78-1.1-2.42-1.1-5.58 0-3.36 1.14-5.74 1.16-2.4 3.22-3.66 2.08-1.28 4.86-1.28 2.36 0 4.3 1.04 1.96 1.02 3.12 3.18 1.18 2.14 1.18 5.5 0 .48-.04 1.16-.02.66-.1 1.36h-13.66q.16 1.7.82 3 .68 1.28 1.8 2t2.64.72q1.34 0 2.44-.46 1.1-.48 2.06-1.48l2.32 2.5q-1.2 1.26-2.94 2.08-1.74.8-3.94.8M167.428 88h9.86q-.04-1.62-.6-2.84-.54-1.24-1.58-1.94-1.02-.7-2.5-.7-2.06 0-3.54 1.32t-1.64 4.16"/></svg>
